X:21
T:The Swallow's Nest
N:Jig       Allans  # 21
N:Trad/Anon
B:Allan's Irish Fiddler (pub. Mozart Allen,  Glascow) date unknown
Z:FROM ALLAN'S TO NOTEWORTHY, FROM NOTEWORTHY TO ABC, MIDI AND .TXT BY VINCE
BRENNAN Dec. 2002 (HTTP://WWW.SOSYOURMOM.COM)
I:abc2nwc
M:6/8
L:1/8
K:G
(A/2B/2)|cAA eAA|cBA edc|BGG dGG|gfg dcB|
cAA eAA|cBA e2f|gfg dcB|cAA A2:|
|:d|efg a2b|a2b age|efg a2b|agf g2d|
efg a2b|a2b agf|gfg dcB|cAA A2:|
